gmdp.ru/build/img/svg/shield.svg

<svg width="81" height="81" viewBox="0 0 81 81" fill="none" xmlns="http://www.w3.org/2000/svg">
<g clip-path="url(#clip0_2800:42)">
<path d="M14.4883 26.28C14.8085 30.1106 15.5438 35.3577 17.2076 40.8672C20.7413 52.5672 26.9836 60.8867 35.771 65.6144C44.5584 60.8867 50.8008 52.5672 54.3343 40.8672C55.9981 35.3582 56.7333 30.1109 57.0538 26.28L35.771 15.6387L14.4883 26.28Z" fill="url(#paint0_linear_2800:42)"/>
<path d="M71.5012 18.9302C71.4569 18.0768 70.9569 17.3132 70.1927 16.9311L36.8316 0.250475C36.1635 -0.0834917 35.3772 -0.0834917 34.7091 0.250475L1.34804 16.9311C0.583765 17.3132 0.0838433 18.0768 0.0395464 18.9302C0.0142339 19.4158 -0.534415 30.9802 3.405 44.4064C5.73597 52.3504 9.16454 59.2887 13.5955 65.0288C19.1793 72.2622 26.356 77.5833 34.9263 80.8448C35.1983 80.9481 35.4842 80.9999 35.7704 80.9999C36.0565 80.9999 36.3424 80.9481 36.6144 80.8448C45.1847 77.5835 52.3614 72.2622 57.9452 65.0288C62.3762 59.2887 65.8047 52.3502 68.1357 44.4064C72.0751 30.9802 71.5265 19.4158 71.5012 18.9302V18.9302ZM36.8221 70.4117C36.4907 70.5756 36.1304 70.6575 35.7704 70.6575C35.4103 70.6575 35.0499 70.5756 34.7186 70.4117C24.1519 65.1872 16.7316 55.7086 12.6638 42.2395C10.6293 35.5027 9.89481 29.1547 9.63694 25.0157C9.57761 24.0653 10.0924 23.1716 10.9442 22.7457L34.7093 10.8632C35.3774 10.5294 36.1637 10.5292 36.8317 10.8632L60.597 22.7457C61.4488 23.1714 61.9636 24.0654 61.9042 25.0159C61.6462 29.1551 60.9117 35.5034 58.8772 42.2395C54.8092 55.7084 47.3888 65.187 36.8221 70.4117V70.4117Z" fill="url(#paint1_linear_2800:42)"/>
</g>
<defs>
<linearGradient id="paint0_linear_2800:42" x1="35.771" y1="15.6387" x2="35.771" y2="65.6144" gradientUnits="userSpaceOnUse">
<stop stop-color="#00FBEE"/>
<stop offset="1" stop-color="#00FBEE" stop-opacity="0.2"/>
</linearGradient>
<linearGradient id="paint1_linear_2800:42" x1="35.7704" y1="0" x2="35.7704" y2="80.9999" gradientUnits="userSpaceOnUse">
<stop stop-color="#00FBEE"/>
<stop offset="1" stop-color="#00FBEE" stop-opacity="0.2"/>
</linearGradient>
<clipPath id="clip0_2800:42">
<rect width="81" height="81" fill="white"/>
</clipPath>
</defs>
</svg>

<svg xmlns="http://www.w3.org/2000/svg" width="81" height="81" fill="none">
  <g clip-path="url(#a)">
    <path fill="url(#b)" d="M14.488 26.28c.32 3.83 1.056 9.078 2.72 14.587 3.533 11.7 9.776 20.02 18.563 24.747 8.787-4.727 15.03-13.047 18.563-24.747 1.664-5.509 2.4-10.756 2.72-14.587L35.77 15.639 14.488 26.28Z"/>
    <path fill="url(#c)" d="M71.501 18.93a2.373 2.373 0 0 0-1.308-1.999L36.832.251a2.373 2.373 0 0 0-2.123 0L1.348 16.93a2.373 2.373 0 0 0-1.308 2c-.026.485-.574 12.05 3.365 25.475 2.331 7.944 5.76 14.883 10.19 20.623 5.584 7.233 12.761 12.554 21.331 15.816a2.377 2.377 0 0 0 1.688 0c8.57-3.261 15.747-8.583 21.331-15.816 4.431-5.74 7.86-12.679 10.19-20.623 3.94-13.426 3.391-24.99 3.366-25.476ZM36.822 70.412a2.372 2.372 0 0 1-2.103 0c-10.567-5.225-17.987-14.703-22.055-28.173-2.035-6.736-2.77-13.084-3.027-17.223a2.373 2.373 0 0 1 1.307-2.27L34.71 10.863a2.374 2.374 0 0 1 2.123 0l23.765 11.883a2.373 2.373 0 0 1 1.307 2.27c-.258 4.14-.992 10.487-3.027 17.224C54.81 55.707 47.39 65.186 36.822 70.412Z"/>
  </g>
  <defs>
    <linearGradient id="b" x1="35.771" x2="35.771" y1="15.639" y2="65.614" gradientUnits="userSpaceOnUse">
      <stop stop-color="#00FBEE"/>
      <stop offset="1" stop-color="#00FBEE" stop-opacity=".2"/>
    </linearGradient>
    <linearGradient id="c" x1="35.77" x2="35.77" y1="0" y2="81" gradientUnits="userSpaceOnUse">
      <stop stop-color="#00FBEE"/>
      <stop offset="1" stop-color="#00FBEE" stop-opacity=".2"/>
    </linearGradient>
    <clipPath id="a">
      <path fill="#fff" d="M0 0h81v81H0z"/>
    </clipPath>
  </defs>
</svg>
